files/logo/logo.svg

<svg width="98" height="30" viewBox="0 0 98 30" fill="none" xmlns="http://www.w3.org/2000/svg">
<path d="M66.1888 9.56728C65.7553 5.54333 63.2459 2.14533 59.6187 0.714596C55.9915 -0.71614 51.8623 0.0439387 48.9423 2.61479C47.1857 1.07228 44.9044 0.155715 42.5319 0.0439386C39.7031 -0.0901929 37.034 0.871082 35.0037 2.77128C33.1102 4.53734 31.9468 6.97407 31.7187 9.61199C31.6046 10.9309 31.7415 12.2499 32.1749 13.6583L14.4722 13.6136C13.9931 13.6136 13.6053 13.8371 13.3772 14.2172C13.1262 14.6419 13.1262 15.1784 13.3772 15.6032C13.6053 15.9832 13.9931 16.2068 14.4722 16.2068L34.0456 16.2515C34.5018 16.2515 34.8668 16.0503 35.0949 15.715C35.3459 15.3349 35.3915 14.7984 35.1862 14.3513C33.6577 10.8862 34.2281 7.21997 36.669 4.80561C38.1747 3.33016 40.1594 2.57008 42.2353 2.63715C44.4254 2.70421 46.5242 3.7102 47.9842 5.36449C48.2123 5.61039 48.5545 5.76688 48.9423 5.76688C49.3301 5.76688 49.6723 5.63275 49.9004 5.36449C52.1589 2.81599 55.558 1.92178 58.6149 3.08425C61.3068 4.11259 63.2459 6.68345 63.5653 9.63434C63.6566 10.4838 64.4322 10.9086 65.1394 10.8415C65.8238 10.7521 66.2572 10.2379 66.1888 9.56728Z" fill="#2A2A2A"/>
<path d="M10.001 26.1549H6.85284C6.46502 26.1549 6.16846 25.8419 6.16846 25.4842V4.20198C6.16846 3.82194 6.48784 3.53133 6.85284 3.53133H10.0238C10.4116 3.53133 10.7082 3.8443 10.7082 4.20198V25.4842C10.6854 25.8419 10.3888 26.1549 10.001 26.1549Z" fill="#2A2A2A"/>
<path d="M4.48023 23.4946H1.28643C0.92143 23.4946 0.602051 23.2039 0.602051 22.8239V6.79518C0.602051 6.4375 0.898617 6.12453 1.28643 6.12453H4.48023C4.84523 6.12453 5.16461 6.41515 5.16461 6.79518V22.8239C5.16461 23.2039 4.86804 23.4946 4.48023 23.4946Z" fill="#2A2A2A"/>
<path d="M15.5214 28.4575H12.3732C11.9854 28.4575 11.666 28.1445 11.666 27.7645V1.87707C11.666 1.49703 11.9854 1.18405 12.3732 1.18405H15.5214C15.9092 1.18405 16.2286 1.49703 16.2286 1.87707V27.7868C16.2286 28.1668 15.9092 28.4575 15.5214 28.4575Z" fill="#2A2A2A"/>
<path d="M83.5723 14.2172C83.3441 13.8372 82.9563 13.6136 82.4773 13.6136L63.9305 13.6583C63.5198 13.6583 62.9723 13.8819 62.767 14.329C60.6682 18.8895 56.425 22.3098 53.3909 24.5006C52.045 25.4619 50.699 26.3561 49.3531 27.1609L49.2162 27.228C49.0109 27.3398 49.0109 27.3398 48.8284 27.2727C48.3037 27.0715 47.779 26.7138 47.2771 26.3785C47.0718 26.2443 46.8665 26.1102 46.684 25.9761C45.3152 25.1042 44.1289 24.2771 43.0339 23.4499C40.8667 21.7733 39.0873 20.0966 37.5817 18.2635C37.1482 17.727 36.4638 17.6599 35.9163 18.0847C35.3688 18.5094 35.1179 19.3589 35.6654 20.0296C37.1254 21.7956 38.8592 23.4723 40.9808 25.1266C42.2127 26.0879 43.513 27.0268 44.859 27.8986C45.5433 28.3457 46.2733 28.7929 47.0262 29.24L47.1859 29.3294C47.7106 29.6424 48.3037 30 49.0109 30C49.1478 30 49.3075 29.9777 49.4671 29.9553C50.0375 29.8212 50.585 29.4635 51.0869 29.1505C51.2237 29.0611 51.3378 28.9717 51.4747 28.9046C52.2731 28.4128 53.0716 27.8763 53.87 27.3398C56.1057 25.7972 57.9991 24.2771 59.6873 22.6899C61.9914 20.499 63.6567 18.3753 64.7745 16.2515L82.4773 16.2068C82.9563 16.2068 83.3441 15.9833 83.5723 15.6032C83.8232 15.1785 83.8232 14.642 83.5723 14.2172Z" fill="#FBF138"/>
<path d="M88.2034 26.1549H91.3744C91.7622 26.1549 92.0588 25.8419 92.0588 25.4842V4.20198C92.0588 3.82194 91.7394 3.53133 91.3744 3.53133H88.2034C87.8156 3.53133 87.519 3.8443 87.519 4.20198V25.4842C87.519 25.8419 87.8156 26.1549 88.2034 26.1549Z" fill="#FBF138"/>
<path d="M93.7239 23.4946H96.9177C97.2827 23.4946 97.6021 23.204 97.6021 22.824V6.79526C97.6021 6.43758 97.3055 6.1246 96.9177 6.1246H93.7239C93.3589 6.1246 93.0396 6.41522 93.0396 6.79526V22.824C93.0396 23.204 93.3361 23.4946 93.7239 23.4946Z" fill="#FBF138"/>
<path d="M82.6828 28.4575H85.8309C86.2187 28.4575 86.5381 28.1445 86.5381 27.7645V1.87707C86.5381 1.49703 86.2187 1.18405 85.8309 1.18405H82.6828C82.295 1.18405 81.9756 1.49703 81.9756 1.87707V27.7868C81.9756 28.1668 82.295 28.4575 82.6828 28.4575Z" fill="#FBF138"/>
</svg>

<svg xmlns="http://www.w3.org/2000/svg" width="98" height="30" fill="none" viewBox="0 0 98 30"><path fill="#2a2a2a" d="M66.189 9.567c-.434-4.024-2.943-7.422-6.57-8.852s-7.757-.671-10.677 1.9a10.5 10.5 0 0 0-6.41-2.571C39.703-.09 37.034.87 35.004 2.77c-1.894 1.766-3.057 4.203-3.285 6.841-.114 1.319.022 2.638.456 4.046l-17.703-.044c-.479 0-.867.223-1.095.603a1.37 1.37 0 0 0 0 1.386c.228.38.616.604 1.095.604l19.574.044c.456 0 .82-.2 1.049-.536a1.44 1.44 0 0 0 .091-1.364c-1.528-3.465-.958-7.131 1.483-9.545a7.54 7.54 0 0 1 5.566-2.169c2.19.067 4.29 1.073 5.75 2.727a1.3 1.3 0 0 0 .957.403c.388 0 .73-.134.958-.403 2.259-2.548 5.658-3.442 8.715-2.28 2.692 1.029 4.63 3.6 4.95 6.55.092.85.867 1.275 1.574 1.207.685-.089 1.118-.603 1.05-1.274M10.001 26.155H6.853a.68.68 0 0 1-.685-.67V4.201c0-.38.32-.67.685-.67h3.17a.68.68 0 0 1 .685.67v21.282a.716.716 0 0 1-.707.67M4.48 23.495H1.286a.68.68 0 0 1-.684-.671V6.795a.68.68 0 0 1 .684-.67H4.48a.68.68 0 0 1 .685.67v16.029c0 .38-.297.67-.685.67"/><path fill="#2a2a2a" d="M15.521 28.458h-3.148a.704.704 0 0 1-.707-.693V1.877c0-.38.32-.693.707-.693h3.148c.388 0 .708.313.708.693v25.91c0 .38-.32.67-.708.67"/><path fill="#fbf138" d="M83.572 14.217c-.228-.38-.616-.603-1.095-.603l-18.546.044c-.411 0-.959.224-1.164.671-2.099 4.56-6.342 7.98-9.376 10.172a60 60 0 0 1-4.038 2.66l-.137.067c-.205.112-.205.112-.388.045-.524-.201-1.049-.56-1.55-.895a13 13 0 0 1-.594-.402 55 55 0 0 1-3.65-2.526c-2.167-1.677-3.947-3.353-5.452-5.186-.434-.537-1.118-.604-1.666-.18-.547.425-.798 1.275-.25 1.946 1.46 1.766 3.193 3.442 5.315 5.097a54.5 54.5 0 0 0 6.045 4.113l.16.09c.525.312 1.118.67 1.825.67.137 0 .296-.022.456-.045.57-.134 1.118-.491 1.62-.804.137-.09.25-.18.388-.246a73 73 0 0 0 2.395-1.565c2.236-1.543 4.13-3.063 5.817-4.65 2.304-2.191 3.97-4.315 5.088-6.439l17.702-.044c.48 0 .867-.224 1.095-.604a1.37 1.37 0 0 0 0-1.386m4.631 11.938h3.171a.68.68 0 0 0 .685-.67V4.201a.68.68 0 0 0-.685-.67h-3.17a.68.68 0 0 0-.685.67v21.282c0 .358.297.67.684.67m5.521-2.658h3.194a.68.68 0 0 0 .684-.671V6.795a.68.68 0 0 0-.684-.67h-3.194a.68.68 0 0 0-.684.67v16.029c0 .38.296.67.684.67"/><path fill="#fbf138" d="M82.683 28.458h3.148a.704.704 0 0 0 .707-.693V1.877c0-.38-.32-.693-.707-.693h-3.148a.704.704 0 0 0-.707.693v25.91c0 .38.319.67.707.67"/></svg>
